X:5
T:Gavotte d'Yves Haire tamm kreiz
C:Jo\"el Huby
P:E6
M:12/8
%%MIDI chordprog 42
%%MIDI chordvol 40
%%MIDI bassprog 43
%%MIDI program 71
%%MIDI bassvol 80
K:C
P:E
M:12/8
Q:C3=60
%%MIDI gchord cccf2cf2fc3
|: EGB d3 Fcd E3 |1 EGB f2 e d2 c B3 :|2 EGB A2 d A3 B3 |
Q:C3=156
%%MIDI gchord fzzczzfzcfzz
|: EGB EGB cdc B3 |1 f2 e ded cdc B3 :|2 f2 e d2 c B2 A E3 ||

